svg/weather_snowy_rainy.svg

<svg xmlns="http://www.w3.org/2000/svg" viewBox="0 0 24 24"><path d="M18.5 18.67c0 1.29-1 2.33-2.25 2.33S14 19.96 14 18.67c0-1.55 2.25-4.17 2.25-4.17s2.25 2.62 2.25 4.17M4 17.36c-.14-.54.18-1.11.73-1.25L7 15.5l-1.67-1.64c-.4-.4-.4-1.05 0-1.46.4-.4 1.07-.4 1.46 0l1.66 1.65.59-2.25c.14-.56.71-.88 1.25-.73.56.14.88.71.71 1.26l-.58 2.25 2.25-.58a.99.99 0 0 1 1.26.71c.15.54-.17 1.11-.73 1.25l-2.25.59 1.65 1.66c.4.39.4 1.06 0 1.46s-1.06.4-1.45 0L9.5 18l-.61 2.27c-.14.56-.71.87-1.25.73-.56-.14-.87-.71-.73-1.26l.59-2.24-2.24.59c-.55.14-1.12-.17-1.26-.73M1 11a5 5 0 0 1 5-5c1-2.35 3.3-4 6-4 3.43 0 6.24 2.66 6.5 6.03L19 8a4 4 0 0 1 4 4 4 4 0 0 1-4 4 1 1 0 0 1-1-1 1 1 0 0 1 1-1 2 2 0 0 0 2-2 2 2 0 0 0-2-2h-2V9a5 5 0 0 0-5-5C9.5 4 7.45 5.82 7.06 8.19 6.73 8.07 6.37 8 6 8a3 3 0 0 0-3 3c0 .85.35 1.61.91 2.16.36.39.35 1-.03 1.38a.996.996 0 0 1-1.41 0A5 5 0 0 1 1 11"/></svg>

<?xml version="1.0" encoding="UTF-8"?><!DOCTYPE svg PUBLIC "-//W3C//DTD SVG 1.1//EN" "http://www.w3.org/Graphics/SVG/1.1/DTD/svg11.dtd"><svg xmlns="http://www.w3.org/2000/svg" xmlns:xlink="http://www.w3.org/1999/xlink" version="1.1" id="mdi-weather-snowy-rainy" width="24" height="24" viewBox="0 0 24 24"><path d="M18.5,18.67C18.5,19.96 17.5,21 16.25,21C15,21 14,19.96 14,18.67C14,17.12 16.25,14.5 16.25,14.5C16.25,14.5 18.5,17.12 18.5,18.67M4,17.36C3.86,16.82 4.18,16.25 4.73,16.11L7,15.5L5.33,13.86C4.93,13.46 4.93,12.81 5.33,12.4C5.73,12 6.4,12 6.79,12.4L8.45,14.05L9.04,11.8C9.18,11.24 9.75,10.92 10.29,11.07C10.85,11.21 11.17,11.78 11,12.33L10.42,14.58L12.67,14C13.22,13.83 13.79,14.15 13.93,14.71C14.08,15.25 13.76,15.82 13.2,15.96L10.95,16.55L12.6,18.21C13,18.6 13,19.27 12.6,19.67C12.2,20.07 11.54,20.07 11.15,19.67L9.5,18L8.89,20.27C8.75,20.83 8.18,21.14 7.64,21C7.08,20.86 6.77,20.29 6.91,19.74L7.5,17.5L5.26,18.09C4.71,18.23 4.14,17.92 4,17.36M1,11A5,5 0 0,1 6,6C7,3.65 9.3,2 12,2C15.43,2 18.24,4.66 18.5,8.03L19,8A4,4 0 0,1 23,12A4,4 0 0,1 19,16A1,1 0 0,1 18,15A1,1 0 0,1 19,14A2,2 0 0,0 21,12A2,2 0 0,0 19,10H17V9A5,5 0 0,0 12,4C9.5,4 7.45,5.82 7.06,8.19C6.73,8.07 6.37,8 6,8A3,3 0 0,0 3,11C3,11.85 3.35,12.61 3.91,13.16C4.27,13.55 4.26,14.16 3.88,14.54C3.5,14.93 2.85,14.93 2.47,14.54C1.56,13.63 1,12.38 1,11Z" /></svg>
